source/images/replica-set-delayed-member.svg

<?xml version="1.0" encoding="UTF-8" standalone="no"?>
<svg
   xmlns:dc="http://purl.org/dc/elements/1.1/"
   xmlns:cc="http://creativecommons.org/ns#"
   xmlns:rdf="http://www.w3.org/1999/02/22-rdf-syntax-ns#"
   xmlns:svg="http://www.w3.org/2000/svg"
   xmlns="http://www.w3.org/2000/svg"
   xmlns:sodipodi="http://sodipodi.sourceforge.net/DTD/sodipodi-0.dtd"
   xmlns:inkscape="http://www.inkscape.org/namespaces/inkscape"
   width="740"
   height="280"
   version="1.1"
   id="svg110"
   sodipodi:docname="replica-set-delayed-member.svg"
   inkscape:version="0.92.5 (2060ec1f9f, 2020-04-08)">
  <metadata
     id="metadata116">
    <rdf:RDF>
      <cc:Work
         rdf:about="">
        <dc:format>image/svg+xml</dc:format>
        <dc:type
           rdf:resource="http://purl.org/dc/dcmitype/StillImage" />
      </cc:Work>
    </rdf:RDF>
  </metadata>
  <defs
     id="defs114" />
  <sodipodi:namedview
     pagecolor="#ffffff"
     bordercolor="#666666"
     borderopacity="1"
     objecttolerance="10"
     gridtolerance="10"
     guidetolerance="10"
     inkscape:pageopacity="0"
     inkscape:pageshadow="2"
     inkscape:window-width="1516"
     inkscape:window-height="850"
     id="namedview112"
     showgrid="false"
     inkscape:zoom="1.5081081"
     inkscape:cx="370"
     inkscape:cy="140"
     inkscape:window-x="0"
     inkscape:window-y="27"
     inkscape:window-maximized="0"
     inkscape:current-layer="svg110" />
  <path
     d="M245 109.61c0-1.165-2.906-2.11-6.496-2.11H51.496c-3.586 0-6.496.945-6.496 2.11v60.778c0 1.166 2.91 2.112 6.496 2.112h187.008c3.59 0 6.496-.946 6.496-2.112V109.61"
     fill="#5CA831"
     id="path64" />
  <text
     transform="translate(145 140)"
     id="text68">
    <tspan
       x="-76.087"
       y="12.242"
       font-family="GillSans"
       font-size="36"
       fill="#FFFFFE"
       id="tspan66">Secondary</tspan>
  </text>
  <path
     d="M470 109.61c0-1.165-2.906-2.11-6.496-2.11H276.496c-3.586 0-6.496.945-6.496 2.11v60.778c0 1.166 2.91 2.112 6.496 2.112h187.008c3.59 0 6.496-.946 6.496-2.112V109.61"
     fill="#2A86C0"
     id="path70" />
  <text
     transform="translate(370 140)"
     id="text74">
    <tspan
       x="-57.357"
       y="12"
       font-family="GillSans"
       font-size="36"
       fill="#FFF"
       id="tspan72">Primary</tspan>
  </text>
  <path
     d="M694.863 109.61c0-1.165-2.905-2.11-6.496-2.11H501.359c-3.586 0-6.496.945-6.496 2.11v60.778c0 1.166 2.91 2.112 6.496 2.112h187.008c3.591 0 6.496-.946 6.496-2.112V109.61"
     fill="#818181"
     id="path76" />
  <text
     transform="translate(594.863 140)"
     id="text80">
    <tspan
       x="-76.087"
       y="12"
       font-family="GillSans"
       font-size="36"
       fill="#FFF"
       id="tspan78">Secondary</tspan>
  </text>
  <text
     id="text84"
     x="543.66101"
     y="181.647">
    <tspan
       x="523.10901"
       y="182.52699"
       font-size="11"
       id="tspan82"
       style="font-size:11px;font-family:GillSans-Light">priority: 0</tspan>
  </text>
  <text
     id="text88"
     x="548.70502"
     y="195.549">
    <tspan
       x="522.93402"
       y="196.51601"
       font-size="11"
       id="tspan86"
       style="font-size:11px;font-family:GillSans-Light">hidden: true</tspan>
  </text>
  <text
     id="text92"
     x="558.91803"
     y="207.647">
    <tspan
       x="523.47101"
       y="208.701"
       font-size="11"
       id="tspan90"
       style="font-size:11px;font-family:GillSans-Light">secondaryDelaySecs: 3600</tspan>
  </text>
  <g
     id="g100">
    <path
       d="M470 12.11c0-1.165-2.906-2.11-6.496-2.11H276.496c-3.586 0-6.496.945-6.496 2.11v60.778c0 1.166 2.91 2.112 6.496 2.112h187.008c3.59 0 6.496-.946 6.496-2.112V12.11"
       fill="#5CA831"
       id="path94" />
    <text
       transform="translate(370 42.5)"
       id="text98">
      <tspan
         x="-76.087"
         y="12"
         font-family="GillSans"
         font-size="36"
         fill="#FFFFFE"
         id="tspan96">Secondary</tspan>
    </text>
  </g>
  <g
     id="g108">
    <path
       d="M470 207.11c0-1.165-2.906-2.11-6.496-2.11H276.496c-3.586 0-6.496.945-6.496 2.11v60.778c0 1.166 2.91 2.112 6.496 2.112h187.008c3.59 0 6.496-.946 6.496-2.112V207.11"
       fill="#5CA831"
       id="path102" />
    <text
       transform="translate(370 237.5)"
       id="text106">
      <tspan
         x="-76.087"
         y="12"
         font-family="GillSans"
         font-size="36"
         fill="#FFFFFE"
         id="tspan104">Secondary</tspan>
    </text>
  </g>
</svg>

<?xml version="1.0" encoding="UTF-8"?>
<!DOCTYPE svg PUBLIC "-//W3C//DTD SVG 1.1//EN" "http://www.w3.org/Graphics/SVG/1.1/DTD/svg11.dtd">
<svg version="1.1" xmlns="http://www.w3.org/2000/svg" xmlns:xlink="http://www.w3.org/1999/xlink" x="0px" y="0px" width="740" height="280" viewBox="0, 0, 740, 280">
  <g id="Layer 1">
    <g>
      <path d="M245,109.61 C245,108.445 242.094,107.5 238.504,107.5 L51.496,107.5 C47.91,107.5 45,108.445 45,109.61 L45,170.388 C45,171.554 47.91,172.5 51.496,172.5 L238.504,172.5 C242.094,172.5 245,171.554 245,170.388 L245,109.61" fill="#5CA831"/>
      <text transform="matrix(1, -0, 0, 1, 145, 140)">
        <tspan x="-76.087" y="12.242" font-family="GillSans" font-size="36" fill="#FFFFFE">Secondary</tspan>
      </text>
    </g>
    <path d="M470,109.61 C470,108.445 467.094,107.5 463.504,107.5 L276.496,107.5 C272.91,107.5 270,108.445 270,109.61 L270,170.388 C270,171.554 272.91,172.5 276.496,172.5 L463.504,172.5 C467.094,172.5 470,171.554 470,170.388 L470,109.61" fill="#2A86C0"/>
    <text transform="matrix(1, 0, 0, 1, 370, 140)">
      <tspan x="-57.357" y="12" font-family="GillSans" font-size="36" fill="#FFFFFF">Primary</tspan>
    </text>
    <g>
      <path d="M694.863,109.61 C694.863,108.445 691.958,107.5 688.367,107.5 L501.359,107.5 C497.773,107.5 494.863,108.445 494.863,109.61 L494.863,170.388 C494.863,171.554 497.773,172.5 501.359,172.5 L688.367,172.5 C691.958,172.5 694.863,171.554 694.863,170.388 L694.863,109.61" fill="#818181"/>
      <text transform="matrix(1, -0, 0, 1, 594.863, 140)">
        <tspan x="-76.087" y="12" font-family="GillSans" font-size="36" fill="#FFFFFF">Secondary</tspan>
      </text>
    </g>
    <text transform="matrix(1, 0, 0, 1, 541.531, 189)">
      <tspan x="-23.531" y="1" font-family="GillSans-Light" font-size="11" fill="#000000">priority: 0 </tspan>
    </text>
    <text transform="matrix(1, 0, 0, 1, 549.119, 199)">
      <tspan x="-31.119" y="1" font-family="GillSans-Light" font-size="11" fill="#000000">hidden: true </tspan>
    </text>
    <text transform="matrix(1, 0, 0, 1, 556.909, 179)">
      <tspan x="-38.909" y="1" font-family="GillSans-Light" font-size="11" fill="#000000">slaveDelay: 3600</tspan>
    </text>
    <text transform="matrix(1, 0, 0, 1, 627.641, -0.458)"/>
    <g>
      <path d="M470,12.11 C470,10.945 467.094,10 463.504,10 L276.496,10 C272.91,10 270,10.945 270,12.11 L270,72.888 C270,74.054 272.91,75 276.496,75 L463.504,75 C467.094,75 470,74.054 470,72.888 L470,12.11" fill="#5CA831"/>
      <text transform="matrix(1, -0, 0, 1, 370, 42.5)">
        <tspan x="-76.087" y="12" font-family="GillSans" font-size="36" fill="#FFFFFE">Secondary</tspan>
      </text>
    </g>
    <g>
      <path d="M470,207.11 C470,205.945 467.094,205 463.504,205 L276.496,205 C272.91,205 270,205.945 270,207.11 L270,267.888 C270,269.054 272.91,270 276.496,270 L463.504,270 C467.094,270 470,269.054 470,267.888 L470,207.11" fill="#5CA831"/>
      <text transform="matrix(1, -0, 0, 1, 370, 237.5)">
        <tspan x="-76.087" y="12" font-family="GillSans" font-size="36" fill="#FFFFFE">Secondary</tspan>
      </text>
    </g>
  </g>
  <defs/>
</svg>
